app/dist/common/images/xpon-technologies-limited.svg

<svg height="18" viewBox="0 0 18 18" width="18" xmlns="http://www.w3.org/2000/svg"><path d="m0 0h18v18h-18z" fill="#f0f3fa"/><path d="m9.5 7.5-2.5-2.5v-1h1l2.5 2.5 2.5-2.5h1v1l-2.5 2.5 2.5 2.5v1h-.95l-2.55-2.5-2.5 2.5h-1v-1z" fill="#2e064f"/><path d="m4 7h3.92l.56.58-.56.42h-2.92v5h5v-3l.5-.5.5.5v4h-7z" fill="#08d7f7"/></svg>

<!-- by TradingView --><svg width="18" height="18" viewBox="0 0 18 18" xmlns="http://www.w3.org/2000/svg"><path fill="#F0F3FA" d="M0 0h18v18H0z"/><path d="M9.5 7.5 7 5V4h1l2.5 2.5L13 4h1v1l-2.5 2.5L14 10v1h-.95L10.5 8.5 8 11H7v-1l2.5-2.5Z" fill="#2E064F"/><path d="M4 7h3.92l.56.58-.56.42H5v5h5v-3l.5-.5.5.5v4H4V7Z" fill="#08D7F7"/></svg>
